X:1
T: Lovely Bunch of Coconuts
Z:Giddily
M: 6/8
L: 1/8
Q:240
K:C
ccB c2B|c4-cA|B2^A B2^A|B6|
d2^c d2^c|d2=c B2=A|d2c B2A|G6|
E3 ^D2E|ccc B2A|E2E E3-|E6|
E2E ^D2E|c2c B2A|F6-|F4-F/2z3/2|
B3 B3|B3 B3|B2B BBB|B6|
AAA A2A|AAA A2B|d2c B2A|G6|
E3 ^D2E|ccc B2A|E2E E3-|E6|
EEE ^D2E|c2c B2A|F6-|F4-F/2z3/2|
B3 B2^A|B4-B^A|B2B B2^A|B3 B2=A|
G2A B2A|G2F EE=D|C6-|C3/2z3/2 G2A|
c2c c2c|c2c cBA|c6-|c3/2z3/2 G2A|
c2c c2c|c2c cBA|B6-|B6|
B2B B2B|B6|B2B B2B|B3 B2A|
G2A B2A|G2F EED|C6-|C3/2z4z/2|
E3 ^D2E|ccc B2A|E2E E3-|E6|
E2E ^D2E|c2c B2A|F6-|F4-F/2z3/2|
B3 B3|B3 B3|B2B BBB|B6|
AAA A2A|AAA A2B|d2c B2A|G6|
E3 ^D2E|ccc B2A|E2E E3-|E6|
EEE ^D2E|c2c B2A|F6-|F4-F/2z3/2|
B3 B2^A|B4-B^A|B2B B2^A|B3 B2=A|
G2A B2A|G2F EE=D|C6-|C3/2z3/2 G2A|
c2c c2c|c2c cBA|c6-|c3/2z3/2 G2A|
c2c c2c|c2c cBA|B6-|B6|
B2B B2B|B6|B2B B2B|B3 B2A|
G2A B2A|G2F EED|C6-|C4
Mario Theme
